src/assets/duotone/BuyCrypto.svg

<?xml version="1.0" encoding="UTF-8"?>
<svg width="24" height="24" viewBox="0 0 24 24" xmlns="http://www.w3.org/2000/svg">
 <path d="m22 8.5c0 3.59-2.91 6.5-6.5 6.5-0.17 0-0.35-0.01-0.52-0.02-0.25-3.17-2.79-5.71-5.96-5.96-0.01-0.17-0.01999-0.35-0.01999-0.52 0-3.59 2.91-6.5 6.5-6.5s6.5 2.91 6.5 6.5z"/>
 <path d="m15 15.5c0 3.59-2.91 6.5-6.5 6.5s-6.5-2.91-6.5-6.5 2.91-6.5 6.5-6.5c0.17 0 0.34999 0.01 0.51999 0.02 3.17 0.25 5.71 2.79 5.96 5.96 0.01 0.17 0.02 0.35 0.02 0.52z" opacity=".4"/>
 <path d="M7.62 14.62L8.5 13L9.38 14.62L11 15.5L9.38 16.38L8.5 18L7.62 16.38L6 15.5L7.62 14.62Z"/>
</svg>

<svg width="24" height="24" viewBox="0 0 24 24"  xmlns="http://www.w3.org/2000/svg">
<path d="M22 8.5C22 12.09 19.09 15 15.5 15C15.33 15 15.15 14.99 14.98 14.98C14.73 11.81 12.19 9.27 9.01999 9.02C9.00999 8.85 9 8.67 9 8.5C9 4.91 11.91 2 15.5 2C19.09 2 22 4.91 22 8.5Z" />
<path opacity="0.4" d="M15 15.5C15 19.09 12.09 22 8.5 22C4.91 22 2 19.09 2 15.5C2 11.91 4.91 9 8.5 9C8.67 9 8.84999 9.01 9.01999 9.02C12.19 9.27 14.73 11.81 14.98 14.98C14.99 15.15 15 15.33 15 15.5Z" />
<path d="M7.62 14.62L8.5 13L9.38 14.62L11 15.5L9.38 16.38L8.5 18L7.62 16.38L6 15.5L7.62 14.62Z" />
</svg>
